public/images/poses-sm/Fireﬂy.svg

<svg width="800" height="900" fill="none" xmlns="http://www.w3.org/2000/svg"><path d="M402.539 270.781c7.435-20.759 13.256-74.739-47.223-70.617-38.391 2.619-95.602 1.273-116.556-27.037-20.958-28.308-50.168 48.838-16.849 81.401 33.318 32.558 84.677 38.524 118.625 17.123 33.952-21.398 62.003-.87 62.003-.87Z" fill="#100200" stroke="#000" stroke-width="5" stroke-miterlimit="10"/><path d="M409.46 418.199s-3.335 36.697-20.017 60.049c-16.68 23.352-43.368 76.729-50.041 96.746 0 0-31.591 74.22-40.032 96.746-2.76 7.359-3.998 13.449-4.343 18.414-.681 9.775 6.503 18.296 16.266 19.181 18.701 1.702 53.299 6.111 58.133 15.781 4.388 8.778-47.519 7.451-83.56 5.516-18.061-.97-31.432-17.16-28.972-35.078 6.004-43.819 17.566-117.719 29.132-133.905 16.679-23.352 60.049-153.458 123.434-143.45Z" fill="#fff" stroke="#000" stroke-width="5" stroke-miterlimit="10"/><path d="M409.46 418.199s-3.335 36.697-20.017 60.049c-16.68 23.352-43.368 76.729-50.041 96.746 0 0-31.591 74.22-40.032 96.746-2.76 7.359-3.998 13.449-4.343 18.414-.681 9.775 6.503 18.296 16.266 19.181 18.701 1.702 53.299 6.111 58.133 15.781 4.388 8.778-47.519 7.451-83.56 5.516-18.061-.97-31.432-17.16-28.972-35.078 6.004-43.819 17.566-117.719 29.132-133.905 16.679-23.352 60.049-153.458 123.434-143.45Z" stroke="#000" stroke-width="5" stroke-miterlimit="10"/><path d="M384.142 336.629s13.636 19.853-6.38 26.525c0 0-96.745-3.336-170.139 50.041-73.393 53.376-70.057 166.802-70.057 166.802s56.713-63.385 100.081-46.704c0 0 63.385-66.721 83.402-63.384 0 0 20.016-3.335 43.368-23.352 23.353-20.017 44.647-82.086 60.685-82.744 16.046-.658-27.906-47.041-40.96-27.184Z" fill="#fff" stroke="#000" stroke-width="5" stroke-miterlimit="10"/><path d="M384.142 336.629s13.636 19.853-6.38 26.525c0 0-96.745-3.336-170.139 50.041-73.393 53.376-70.057 166.802-70.057 166.802s56.713-63.385 100.081-46.704c0 0 63.385-66.721 83.402-63.384 0 0 20.016-3.335 43.368-23.352 23.353-20.017 44.647-82.086 60.685-82.744 16.046-.658-27.906-47.041-40.96-27.184Z" stroke="#000" stroke-width="5" stroke-miterlimit="10"/><path d="M392.175 330.758c-5.914-10.536-.864-20.867-2.845-33.999-3.14-20.87 22.316-41.33 45.854-39.902 31.078 1.886 32.202 112.937 14.189 114.794-10.666 1.095-30.071-7.959-44.137-25.705-4.527-5.707-13.061-15.188-13.061-15.188Z" fill="#fff" stroke="#000" stroke-width="5" stroke-miterlimit="10"/><path d="M392.175 330.758c-5.914-10.536-.864-20.867-2.845-33.999-3.14-20.87 22.316-41.33 45.854-39.902 31.078 1.886 32.202 112.937 14.189 114.794-10.666 1.095-30.071-7.959-44.137-25.705-4.527-5.707-13.061-15.188-13.061-15.188Z" stroke="#000" stroke-width="5" stroke-miterlimit="10"/><path d="M448.146 269.86c-.478 19.48-14.949 54.677-39.378 48.185-27.464-7.295-16.319 9.19-14.184 14.376 2.134 5.187 15.456 15.025 12.71 16.485-2.748 1.459-38.046-14.354-41.659-42.463-3.616-28.11 7.127-41.336 21.736-49.927 14.61-8.591 38.463-9.725 52.954-.688 14.494 9.037 7.821 14.032 7.821 14.032Z" fill="#100200" stroke="#000" stroke-width="5" stroke-miterlimit="10"/><path d="M140.314 541.783s-17.759 69.909 28.946 99.933c46.704 30.025 93.409-20.017 93.409-20.017s90.074-160.131 113.429-166.803c23.353-6.673 110.091-30.024 153.459-100.081 0 0 20.017-23.353 33.36-30.025 13.344-6.673 46.705-6.673 60.05-10.008 13.345-3.335 3.334-33.36 13.345-50.041C646.319 248.061 663 228.044 663 214.7c0-13.345-33.36 10.008-33.36 10.008l-70.057 60.049s-153.458 83.401-170.139 96.745c-16.679 13.345-140.117 76.729-170.142 133.443-.001 0-74.574 10.304-78.988 26.838Z" fill="#fff" stroke="#000" stroke-width="5" stroke-miterlimit="10"/><path d="M140.314 541.783s-17.759 69.909 28.946 99.933c46.704 30.025 93.409-20.017 93.409-20.017s90.074-160.131 113.429-166.803c23.353-6.673 110.091-30.024 153.459-100.081 0 0 20.017-23.353 33.36-30.025 13.344-6.673 46.705-6.673 60.05-10.008 13.345-3.335 3.334-33.36 13.345-50.041C646.319 248.061 663 228.044 663 214.7c0-13.345-33.36 10.008-33.36 10.008l-70.057 60.049s-153.458 83.401-170.139 96.745c-16.679 13.345-140.117 76.729-170.142 133.443-.001 0-74.574 10.304-78.988 26.838Z" stroke="#000" stroke-width="5" stroke-miterlimit="10"/><path d="M219.302 514.945s-16.681 20.017-26.689 46.704" stroke="#000" stroke-width="5" stroke-miterlimit="10"/><path d="M359.962 363.552s-10.108 23.512-7.002 40.746Z" fill="#fff"/><path d="M359.962 363.552s-10.108 23.512-7.002 40.746" stroke="#000" stroke-width="5" stroke-miterlimit="10"/><path d="M359.962 363.552s-10.108 23.512-7.002 40.746" stroke="#000" stroke-width="5" stroke-miterlimit="10"/><path d="M538.156 296.453s17.329 12.073 12.706 36.885Z" fill="#fff"/><path d="M538.156 296.453s17.329 12.073 12.706 36.885" stroke="#000" stroke-width="5" stroke-miterlimit="10"/><path d="M538.156 296.453s17.329 12.073 12.706 36.885" stroke="#000" stroke-width="5" stroke-miterlimit="10"/></svg>

<svg width="800" height="900" viewBox="0 0 800 900" fill="none" xmlns="http://www.w3.org/2000/svg">
<path d="M402.539 270.781C409.974 250.022 415.795 196.042 355.316 200.164C316.925 202.783 259.714 201.437 238.76 173.127C217.802 144.819 188.592 221.965 221.911 254.528C255.229 287.086 306.588 293.052 340.536 271.651C374.488 250.253 402.539 270.781 402.539 270.781Z" fill="#100200" stroke="black" stroke-width="5" stroke-miterlimit="10"/>
<path d="M409.46 418.199C409.46 418.199 406.125 454.896 389.443 478.248C372.763 501.6 346.075 554.977 339.402 574.994C339.402 574.994 307.811 649.214 299.37 671.74C296.61 679.099 295.372 685.189 295.027 690.154C294.346 699.929 301.53 708.45 311.293 709.335C329.994 711.037 364.592 715.446 369.426 725.116C373.814 733.894 321.907 732.567 285.866 730.632C267.805 729.662 254.434 713.472 256.894 695.554C262.898 651.735 274.46 577.835 286.026 561.649C302.705 538.297 346.075 408.191 409.46 418.199Z" fill="white" stroke="black" stroke-width="5" stroke-miterlimit="10"/>
<path d="M409.46 418.199C409.46 418.199 406.125 454.896 389.443 478.248C372.763 501.6 346.075 554.977 339.402 574.994C339.402 574.994 307.811 649.214 299.37 671.74C296.61 679.099 295.372 685.189 295.027 690.154C294.346 699.929 301.53 708.45 311.293 709.335C329.994 711.037 364.592 715.446 369.426 725.116C373.814 733.894 321.907 732.567 285.866 730.632C267.805 729.662 254.434 713.472 256.894 695.554C262.898 651.735 274.46 577.835 286.026 561.649C302.705 538.297 346.075 408.191 409.46 418.199Z" stroke="black" stroke-width="5" stroke-miterlimit="10"/>
<path d="M384.142 336.629C384.142 336.629 397.778 356.482 377.762 363.154C377.762 363.154 281.017 359.818 207.623 413.195C134.23 466.571 137.566 579.997 137.566 579.997C137.566 579.997 194.279 516.612 237.647 533.293C237.647 533.293 301.032 466.572 321.049 469.909C321.049 469.909 341.065 466.574 364.417 446.557C387.77 426.54 409.064 364.471 425.102 363.813C441.148 363.155 397.196 316.772 384.142 336.629Z" fill="white" stroke="black" stroke-width="5" stroke-miterlimit="10"/>
<path d="M384.142 336.629C384.142 336.629 397.778 356.482 377.762 363.154C377.762 363.154 281.017 359.818 207.623 413.195C134.23 466.571 137.566 579.997 137.566 579.997C137.566 579.997 194.279 516.612 237.647 533.293C237.647 533.293 301.032 466.572 321.049 469.909C321.049 469.909 341.065 466.574 364.417 446.557C387.77 426.54 409.064 364.471 425.102 363.813C441.148 363.155 397.196 316.772 384.142 336.629Z" stroke="black" stroke-width="5" stroke-miterlimit="10"/>
<path d="M392.175 330.758C386.261 320.222 391.311 309.891 389.33 296.759C386.19 275.889 411.646 255.429 435.184 256.857C466.262 258.743 467.386 369.794 449.373 371.651C438.707 372.746 419.302 363.692 405.236 345.946C400.709 340.239 392.175 330.758 392.175 330.758Z" fill="white" stroke="black" stroke-width="5" stroke-miterlimit="10"/>
<path d="M392.175 330.758C386.261 320.222 391.311 309.891 389.33 296.759C386.19 275.889 411.646 255.429 435.184 256.857C466.262 258.743 467.386 369.794 449.373 371.651C438.707 372.746 419.302 363.692 405.236 345.946C400.709 340.239 392.175 330.758 392.175 330.758Z" stroke="black" stroke-width="5" stroke-miterlimit="10"/>
<path d="M448.146 269.86C447.668 289.34 433.197 324.537 408.768 318.045C381.304 310.75 392.449 327.235 394.584 332.421C396.718 337.608 410.04 347.446 407.294 348.906C404.546 350.365 369.248 334.552 365.635 306.443C362.019 278.333 372.762 265.107 387.371 256.516C401.981 247.925 425.834 246.791 440.325 255.828C454.819 264.865 448.146 269.86 448.146 269.86Z" fill="#100200" stroke="black" stroke-width="5" stroke-miterlimit="10"/>
<path d="M140.314 541.783C140.314 541.783 122.555 611.692 169.26 641.716C215.964 671.741 262.669 621.699 262.669 621.699C262.669 621.699 352.743 461.568 376.098 454.896C399.451 448.223 486.189 424.872 529.557 354.815C529.557 354.815 549.574 331.462 562.917 324.79C576.261 318.117 609.622 318.117 622.967 314.782C636.312 311.447 626.301 281.422 636.312 264.741C646.319 248.061 663 228.044 663 214.7C663 201.355 629.64 224.708 629.64 224.708L559.583 284.757C559.583 284.757 406.125 368.158 389.444 381.502C372.765 394.847 249.327 458.231 219.302 514.945C219.301 514.945 144.728 525.249 140.314 541.783Z" fill="white" stroke="black" stroke-width="5" stroke-miterlimit="10"/>
<path d="M140.314 541.783C140.314 541.783 122.555 611.692 169.26 641.716C215.964 671.741 262.669 621.699 262.669 621.699C262.669 621.699 352.743 461.568 376.098 454.896C399.451 448.223 486.189 424.872 529.557 354.815C529.557 354.815 549.574 331.462 562.917 324.79C576.261 318.117 609.622 318.117 622.967 314.782C636.312 311.447 626.301 281.422 636.312 264.741C646.319 248.061 663 228.044 663 214.7C663 201.355 629.64 224.708 629.64 224.708L559.583 284.757C559.583 284.757 406.125 368.158 389.444 381.502C372.765 394.847 249.327 458.231 219.302 514.945C219.301 514.945 144.728 525.249 140.314 541.783Z" stroke="black" stroke-width="5" stroke-miterlimit="10"/>
<path d="M219.302 514.945C219.302 514.945 202.621 534.962 192.613 561.649" stroke="black" stroke-width="5" stroke-miterlimit="10"/>
<path d="M359.962 363.552C359.962 363.552 349.854 387.064 352.96 404.298Z" fill="white"/>
<path d="M359.962 363.552C359.962 363.552 349.854 387.064 352.96 404.298" stroke="black" stroke-width="5" stroke-miterlimit="10"/>
<path d="M359.962 363.552C359.962 363.552 349.854 387.064 352.96 404.298" stroke="black" stroke-width="5" stroke-miterlimit="10"/>
<path d="M538.156 296.453C538.156 296.453 555.485 308.526 550.862 333.338Z" fill="white"/>
<path d="M538.156 296.453C538.156 296.453 555.485 308.526 550.862 333.338" stroke="black" stroke-width="5" stroke-miterlimit="10"/>
<path d="M538.156 296.453C538.156 296.453 555.485 308.526 550.862 333.338" stroke="black" stroke-width="5" stroke-miterlimit="10"/>
</svg>
